X:499
T:B499-  Wert Thou More Fairer Than Thou Art
S:(3rd/4)
Q:1/4=120
L:1/4
M:3/4
K:C
eee|d2e|c(d/e/d/c/)|B3|\
cde|f2e|(e/f/e3/2)d/|e3|\
BBc|c3/2 (A/ B/c/)|d(^c3/2d/)|d3|\
ddd|d3/2(B/ c/d/)|B(A3/2G/)|G3|\
def|g2e|c(d/e/f/e/)|f3|\
dde|B2(c|c)d3/2c/|.c3|]
